X: 10
T:Atlantic Polka (second change)
R:Polka
M:4/4
L:1/8
K:D
A>d|c2A2 efec|d2A2 f3g|a2g2 edeg|f2d2 A3d|
c2A2 efec|d2A2 f3g|a2A2 B2c2|d6:|
|:A2|f8-|f2g2 f2e2|d2cd e2d2|B6B2|
e6d2|c6c2|B3c B3c|B2A2 F2D2|
f8-|f2g2 f2e2|d2cd e2d2|B6B2|
e6d2|c6B2|AA2g f2e2|d6:|
